papirus/16x16/mimetypes/rpm.svg

<?xml version="1.0" encoding="UTF-8" standalone="no"?>
<svg id="svg2" xmlns:rdf="http://www.w3.org/1999/02/22-rdf-syntax-ns#" xmlns="http://www.w3.org/2000/svg" height="16px" width="16px" version="1.1" xmlns:cc="http://creativecommons.org/ns#" viewBox="0 0 16 16" xmlns:dc="http://purl.org/dc/elements/1.1/">
 <metadata id="metadata21">
  <rdf:RDF>
   <cc:Work rdf:about="">
    <dc:format>image/svg+xml</dc:format>
    <dc:type rdf:resource="http://purl.org/dc/dcmitype/StillImage"/>
   </cc:Work>
  </rdf:RDF>
 </metadata>
 <path id="path5" fill="#d1d1d1" d="m14 14.352v-11.703c0-0.3599-0.289-0.649-0.648-0.649h-11.704c-0.3589 0-0.648 0.2891-0.648 0.6484v11.703c0 0.36 0.2891 0.649 0.6484 0.649h11.703c0.36 0 0.649-0.289 0.649-0.648z"/>
 <path id="path4149" fill="#b09961" d="m2 6v5h1v-1l1 1h1l-1-2h1v-3h-3zm1 1h1v1h-1v-1z"/>
 <path id="path11" fill="#b09961" d="m10 6v5h1v-2.1429l0.5 1.1429 0.5-1.1429v2.1429h1v-5h-1l-0.5 2-0.5-2z"/>
 <path id="path13" fill-opacity=".2" fill="#fff" d="m1.6484 2c-0.3593 0-0.6484 0.2891-0.6484 0.6484v0.5c0-0.3593 0.2891-0.6484 0.6484-0.6484h11.704c0.359 0 0.648 0.2891 0.648 0.6484v-0.5c0-0.3593-0.289-0.6484-0.648-0.6484z"/>
 <path id="path15" fill-opacity=".30196" d="m1 13.852v0.5c0 0.359 0.2891 0.648 0.6484 0.648h11.703c0.36 0 0.649-0.289 0.649-0.648v-0.5c0 0.359-0.289 0.648-0.648 0.648h-11.704c-0.3589 0-0.648-0.289-0.648-0.648z"/>
 <path id="path4152" fill="#b09961" d="m6 6v5h1v-2h1 1v-3zm1 1h1v1h-1z"/>
</svg>

<?xml version="1.0" encoding="UTF-8" standalone="no"?>
<svg
   xmlns:dc="http://purl.org/dc/elements/1.1/"
   xmlns:cc="http://creativecommons.org/ns#"
   xmlns:rdf="http://www.w3.org/1999/02/22-rdf-syntax-ns#"
   xmlns:svg="http://www.w3.org/2000/svg"
   xmlns="http://www.w3.org/2000/svg"
   xmlns:sodipodi="http://sodipodi.sourceforge.net/DTD/sodipodi-0.dtd"
   xmlns:inkscape="http://www.inkscape.org/namespaces/inkscape"
   id="svg2"
   height="16px"
   width="16px"
   version="1.1"
   viewBox="0 0 16 16"
   inkscape:version="0.91 r"
   sodipodi:docname="rpm.svg">
  <defs
     id="defs13" />
  <sodipodi:namedview
     pagecolor="#ffffff"
     bordercolor="#666666"
     borderopacity="1"
     objecttolerance="10"
     gridtolerance="10"
     guidetolerance="10"
     inkscape:pageopacity="0"
     inkscape:pageshadow="2"
     inkscape:window-width="1535"
     inkscape:window-height="876"
     id="namedview11"
     showgrid="false"
     inkscape:zoom="44.717433"
     inkscape:cx="8.774779"
     inkscape:cy="7.639117"
     inkscape:window-x="65"
     inkscape:window-y="24"
     inkscape:window-maximized="1"
     inkscape:current-layer="svg2" />
  <metadata
     id="metadata21">
    <rdf:RDF>
      <cc:Work
         rdf:about="">
        <dc:format>image/svg+xml</dc:format>
        <dc:type
           rdf:resource="http://purl.org/dc/dcmitype/StillImage" />
      </cc:Work>
    </rdf:RDF>
  </metadata>
  <path
     style="fill:#d1d1d1"
     inkscape:connector-curvature="0"
     d="M 14,14.352 14,2.649 C 14,2.2891 13.711,2 13.352,2 L 1.648,2 C 1.2891,2 1,2.2891 1,2.6484 l 0,11.703 c 0,0.36 0.2891,0.649 0.6484,0.649 l 11.703,0 c 0.36,0 0.649,-0.289 0.649,-0.648 z"
     id="path5" />
  <path
     style="fill:#b09961"
     d="M 2 6 L 2 11 L 3 11 L 3 10 L 4 11 L 5 11 L 4 9 L 5 9 L 5 6 L 2 6 z M 3 7 L 4 7 L 4 8 L 3 8 L 3 7 z "
     id="path4149" />
  <path
     style="fill:#b09961"
     inkscape:connector-curvature="0"
     d="m 10,6 0,5 1,0 L 11,8.8571429 11.5,10 12,8.8571429 12,11 13,11 13,6 12,6 11.5,8 11,6 Z"
     id="path11"
     sodipodi:nodetypes="ccccccccccccc" />
  <path
     style="fill:#ffffff;fill-opacity:0.2"
     inkscape:connector-curvature="0"
     d="M 1.6484,2 C 1.2891,2 1,2.2891 1,2.6484 l 0,0.5 C 1,2.7891 1.2891,2.5 1.6484,2.5 l 11.704,0 c 0.359,0 0.648,0.2891 0.648,0.6484 l 0,-0.5 C 14.0004,2.2891 13.7114,2 13.3524,2 Z"
     id="path13" />
  <path
     style="fill-opacity:0.30196001"
     inkscape:connector-curvature="0"
     d="m 1,13.852 0,0.5 C 1,14.711 1.2891,15 1.6484,15 l 11.703,0 c 0.36,0 0.649,-0.289 0.649,-0.648 l 0,-0.5 c 0,0.359 -0.289,0.648 -0.648,0.648 l -11.704,0 c -0.3589,0 -0.648,-0.289 -0.648,-0.648 z"
     id="path15" />
  <path
     id="path4152"
     d="M 6,6 6,11 7,11 7,9 8,9 9,9 9,6 Z M 7,7 8,7 8,8 7,8 Z"
     style="fill:#b09961"
     inkscape:connector-curvature="0"
     sodipodi:nodetypes="ccccccccccccc" />
</svg>
